elusive/paper-clip.svg

<?xml version="1.0" encoding="UTF-8" standalone="no"?>
<!-- Generator: IcoMoon.io -->

<svg
   xmlns:dc="http://purl.org/dc/elements/1.1/"
   xmlns:cc="http://creativecommons.org/ns#"
   xmlns:rdf="http://www.w3.org/1999/02/22-rdf-syntax-ns#"
   xmlns:svg="http://www.w3.org/2000/svg"
   xmlns="http://www.w3.org/2000/svg"
   xmlns:sodipodi="http://sodipodi.sourceforge.net/DTD/sodipodi-0.dtd"
   xmlns:inkscape="http://www.inkscape.org/namespaces/inkscape"
   id="svg2"
   version="1.1"
   data-tags="remove-circle, cancel, close, remove, delete"
   height="1200"
   width="1200"
   data-du=""
   viewBox="0 0 1200 1200"
   inkscape:version="0.48.4 r9939"
   sodipodi:docname="paper-clip.svg">
  <defs
     id="defs32">
    <pattern
       id="pattern13199"
       width="811.3138"
       patternUnits="userSpaceOnUse"
       patternTransform="translate(-1692.9959,113.8855)"
       height="483.7205">
      <path
         id="path13201"
         filter="url(#filter3767)"
         d="M241.8603,83.1823H569.4535A158.678,158.678 0 0 1 728.1315,241.8603V241.8603A158.678,158.678 0 0 1 569.4535,400.5382H241.8603A158.678,158.678 0 0 1 83.1823,241.8603V241.8603A158.678,158.678 0 0 1 241.8603,83.1823" />
    </pattern>
    <mask
       id="mask13195"
       maskUnits="userSpaceOnUse">
      <path
         id="path13197"
         d="m -957.1864,582.2458 40.9492,-299.4407 -144.6017,-8.9576 -10.2373,67.822 -12.7966,11.5169 -8.9576,216.2627 -65.2627,-21.7542 14.0763,-270.0085 -74.2204,-6.3983 -11.5169,28.1525 -14.0763,225.2203 -42.2288,-8.9576 2.5593,-250.8136 -6.3983,0 -7.678,-70.3814 -33.2712,1.2797 -1.2796,29.4322 -7.678,17.9153 -2.5593,189.3898 -26.8729,33.2712 2.5593,88.2966 40.9492,19.1949 34.5508,-46.0678 284.0848,76.7797 49.9068,-21.7542"
         inkscape:connector-curvature="0"
         style="fill:#ffffff;stroke:#000000" />
    </mask>
    <filter
       id="filter13191"
       y="-0.26210001"
       x="-0.12899999"
       width="1.2579"
       height="1.5242"
       color-interpolation-filters="sRGB">
      <feGaussianBlur
         id="feGaussianBlur13193"
         stdDeviation="34.659" />
    </filter>
    <inkscape:path-effect
       id="path-effect13189" />
  </defs>
  <sodipodi:namedview
     pagecolor="#ffffff"
     bordercolor="#666666"
     borderopacity="1"
     objecttolerance="10"
     gridtolerance="10"
     guidetolerance="10"
     inkscape:pageopacity="0"
     inkscape:pageshadow="2"
     inkscape:window-width="1535"
     inkscape:window-height="876"
     id="namedview30"
     showgrid="false"
     inkscape:zoom="0.37249375"
     inkscape:cx="874.03962"
     inkscape:cy="800.53859"
     inkscape:window-x="65"
     inkscape:window-y="24"
     inkscape:window-maximized="1"
     inkscape:current-layer="svg2" />
  <metadata
     id="metadata62">
    <rdf:RDF>
      <cc:Work
         rdf:about="">
        <dc:format>image/svg+xml</dc:format>
        <dc:type
           rdf:resource="http://purl.org/dc/dcmitype/StillImage" />
        <dc:title />
      </cc:Work>
    </rdf:RDF>
  </metadata>
  <path
     style="fill:currentColor"
     inkscape:connector-curvature="0"
     d="M 471.70166,1111.2075 C 677.77425,906.27839 838.97015,742.46408 1018.2703,566.61202 1077.4654,504.78671 1114.9558,444.2753 1130.741,385.08012 1158.3672,273.37301 1115.8933,176.6394 1041.9482,100.9433 970.91414,29.909147 894.94687,-3.6348319 814.04694,0.31156011 733.14676,4.2579691 653.23332,45.037355 574.30659,122.6483 L 71.147699,627.78015 154.02084,708.68033 657.17973,205.52144 c 51.63024,-49.08751 113.07,-95.36509 183.5051,-88.79274 107.31703,15.06608 202.08937,146.41594 177.58547,238.75385 -31.07108,81.92344 -73.90547,119.28844 -133.18898,178.57197 -180.3408,179.88002 -320.95668,318.98347 -496.2528,494.27968 -65.88047,60.1994 -108.48657,76.4975 -169.69268,19.7318 -31.57078,-31.5708 -45.38297,-62.48447 -41.43656,-92.73924 4.37907,-35.3004 24.36422,-59.71665 47.35618,-82.87313 L 684.8041,412.70451 c 21.00306,-21.04055 68.83548,-61.42548 88.79274,-43.40977 15.30915,35.52164 -24.12,69.4254 -43.40975,88.79274 L 307.92835,880.3462 388.82828,963.21934 813.06021,540.96062 c 73.0697,-75.3654 125.56689,-167.45979 43.40977,-252.56604 -90.86345,-77.98853 -186.58291,-25.92353 -254.539,41.43679 L 142.18185,789.58026 c -47.356178,47.35617 -74.323369,98.65852 -80.900167,153.90752 -5.186954,77.45492 29.733987,139.62802 76.953767,187.45122 44.3843,44.1431 92.33649,68.5944 151.93431,69.061 71.65805,-2.8689 142.11447,-50.0667 181.5319,-88.7928 z"
     id="path15389" />
</svg>

<?xml version="1.0" encoding="utf-8"?>
<!-- Generator: Adobe Illustrator 13.0.0, SVG Export Plug-In . SVG Version: 6.00 Build 14948)  -->
<!DOCTYPE svg PUBLIC "-//W3C//DTD SVG 1.1//EN" "http://www.w3.org/Graphics/SVG/1.1/DTD/svg11.dtd">
<svg version="1.1"
	 id="svg2" inkscape:version="0.48.4 r9939" sodipodi:docname="paper-clip.svg" xmlns:dc="http://purl.org/dc/elements/1.1/" xmlns:cc="http://creativecommons.org/ns#" xmlns:rdf="http://www.w3.org/1999/02/22-rdf-syntax-ns#" xmlns:svg="http://www.w3.org/2000/svg" xmlns:sodipodi="http://sodipodi.sourceforge.net/DTD/sodipodi-0.dtd" xmlns:inkscape="http://www.inkscape.org/namespaces/inkscape"
	 xmlns="http://www.w3.org/2000/svg" xmlns:xlink="http://www.w3.org/1999/xlink" x="0px" y="0px" width="1200px" height="1200px"
	 viewBox="0 0 1200 1200" enable-background="new 0 0 1200 1200" xml:space="preserve">
<path id="path15389" inkscape:connector-curvature="0" d="M471.701,1111.207c206.073-204.929,367.269-368.743,546.569-544.595
	c59.195-61.825,96.686-122.337,112.471-181.532c27.626-111.707-14.848-208.44-88.793-284.137
	C970.914,29.909,894.947-3.635,814.047,0.312s-160.813,44.726-239.74,122.337L71.147,627.78l82.874,80.9L657.18,205.521
	c51.63-49.087,113.07-95.365,183.505-88.793c107.317,15.066,202.09,146.416,177.586,238.754
	c-31.071,81.924-73.905,119.289-133.189,178.572c-180.341,179.88-320.956,318.983-496.253,494.279
	c-65.88,60.199-108.486,76.498-169.692,19.732c-31.571-31.571-45.383-62.484-41.437-92.739
	c4.379-35.301,24.364-59.717,47.356-82.873l459.748-459.75c21.003-21.04,68.836-61.425,88.793-43.409
	c15.31,35.521-24.12,69.425-43.409,88.793L307.929,880.346l80.899,82.874l424.232-422.259
	c73.069-75.365,125.566-167.46,43.409-252.566c-90.863-77.988-186.583-25.923-254.539,41.437L142.182,789.58
	c-47.356,47.356-74.323,98.658-80.9,153.908c-5.187,77.454,29.734,139.628,76.954,187.451
	c44.384,44.143,92.336,68.594,151.935,69.061C361.828,1197.131,432.284,1149.934,471.701,1111.207L471.701,1111.207z"/>
</svg>
